X: 35295
T: Rose Of Raby, The
R: mazurka
M: 3/4
K: Gminor
GA|:B2 BG Bd|A4 AB|(3cBA Bcde|dc BA GA|
B2 BG Bd|A4 AB|(3cBA dc BA|G4 GA:|
|:B2GB GB|c4 dc|B2 GB dB|c4 Bc|
dc Bd cB|cB Ac BA|B2 GA Bc|A2 AF GA|
B2 BG Bd|A4 FA|c2 cd (3edc|d2 dB GA|
B2 GB dc|A2 FA cB|G2 G2 (3AGF|1 G4 GA:|2 G6||

